;FLAVOR:Marlin
;TIME:4861
;Filament used: 7.26525m
;Layer height: 0.3
;Generated with Cura_SteamEngine 1.2.3
M140 S70
M104 S250
M109 S250
G28
G1 Z50.00 F400
G92 E0
G1 F200 E3
G92 E0
M132 X Y Z A
M907 X100 Y100 Z50 A100
;LAYER_COUNT:27
;LAYER:0
M107
M204 S2000
G0 F3000 X2.116 Y46.315 Z0.3
;TYPE:SKIRT
G1 F1500 X-3.262 Y46.347 E0.26831
G1 X-8.649 Y46.684 E0.5376
G1 X-13.992 Y47.323 E0.80606
G1 X-19.316 Y48.268 E1.07583
G1 X-21.008 Y48.651 E1.16238
G1 X-21.083 Y48.668 E1.16621
G1 X-23.754 Y49.228 E1.30237
G1 X-24.051 Y49.28 E1.31741
G1 X-25.922 Y49.551 E1.41173
G1 X-26.207 Y49.584 E1.42604
G1 X-27.95 Y49.731 E1.51331
G1 X-28.27 Y49.747 E1.5293
G1 X-30.59 Y49.787 E1.64506
G1 X-30.93 Y49.781 E1.66202
G1 X-32.755 Y49.683 E1.7532
G1 X-33.044 Y49.659 E1.76767
G1 X-34.826 Y49.455 E1.85716
G1 X-35.148 Y49.407 E1.8734
G1 X-37.464 Y48.981 E1.99088
G1 X-37.908 Y48.877 E2.01363
G1 X-41.073 Y47.978 E2.17778
G1 X-41.457 Y47.851 E2.19796
G1 X-43.098 Y47.231 E2.28548
G1 X-43.397 Y47.107 E2.30163
G1 X-45.546 Y46.125 E2.41951
G1 X-45.852 Y45.971 E2.4366
G1 X-47.47 Y45.087 E2.52858
G1 X-47.722 Y44.94 E2.54314
G1 X-49.247 Y43.982 E2.63299
G1 X-49.516 Y43.8 E2.64919
G1 X-51.409 Y42.424 E2.76595
G1 X-51.675 Y42.216 E2.78279
G1 X-53.066 Y41.047 E2.87344
G1 X-53.281 Y40.855 E2.88782
G1 X-54.562 Y39.64 E2.97591
G1 X-54.791 Y39.408 E2.99217
G1 X-56.397 Y37.663 E3.11049
G1 X-56.62 Y37.402 E3.12761
G1 X-57.764 Y35.965 E3.21925
G1 X-57.935 Y35.737 E3.23347
G1 X-58.941 Y34.307 E3.3207
G1 X-59.118 Y34.037 E3.33681
G1 X-60.337 Y32.03 E3.45396
G1 X-60.507 Y31.725 E3.47138
G1 X-61.389 Y30.002 E3.56795
G1 X-61.537 Y29.685 E3.5854
G1 X-62.525 Y27.35 E3.71189
G1 X-62.688 Y26.903 E3.73563
G1 X-63.669 Y23.743 E3.90071
G1 X-63.796 Y23.24 E3.92659
G1 X-64.409 Y20.102 E4.0861
G1 X-64.474 Y19.659 E4.10844
G1 X-64.718 Y17.214 E4.23103
G1 X-64.74 Y16.867 E4.24837
G1 X-64.789 Y15.06 E4.33856
G1 X-64.789 Y14.784 E4.35233
G1 X-64.737 Y13.081 E4.43733
G1 X-64.716 Y12.756 E4.45358
G1 X-64.483 Y10.393 E4.57204
G1 X-64.416 Y9.941 E4.59484
G1 X-63.786 Y6.725 E4.75834
G1 X-63.656 Y6.212 E4.78474
G1 X-62.653 Y3.013 E4.952
G1 X-62.498 Y2.588 E4.97457
G1 X-61.59 Y0.429 E5.09142
G1 X-61.446 Y0.119 E5.10847
G1 X-60.604 Y-1.541 E5.20133
G1 X-60.469 Y-1.789 E5.21542
G1 X-59.622 Y-3.241 E5.29929
G1 X-59.452 Y-3.512 E5.31525
G1 X-58.12 Y-5.481 E5.43385
G1 X-57.918 Y-5.757 E5.45091
G1 X-56.796 Y-7.185 E5.54151
G1 X-56.533 Y-7.492 E5.56168
G1 X-54.314 Y-9.873 E5.72406
G1 X-53.996 Y-10.184 E5.74625
G1 X-52.216 Y-11.77 E5.86519
G1 X-51.905 Y-12.025 E5.88526
G1 X-2.882 Y-48.825 E8.94345
G1 X-2.363 Y-49.164 E8.97437
G1 X-1.806 Y-49.433 E9.00523
G1 X-1.218 Y-49.629 E9.03616
G1 X-.61 Y-49.747 E9.06706
G1 X0.008 Y-49.786 E9.09795
G1 X0.626 Y-49.745 E9.12885
G1 X1.234 Y-49.625 E9.15977
G1 X1.821 Y-49.427 E9.19067
G1 X2.377 Y-49.156 E9.22153
G1 X2.88 Y-48.826 E9.25155
G1 X51.41 Y-12.419 E12.27829
G1 X51.594 Y-12.274 E12.28998
G1 X52.812 Y-11.264 E12.36892
G1 X53.046 Y-11.056 E12.38454
G1 X54.745 Y-9.449 E12.50122
G1 X54.98 Y-9.211 E12.5179
G1 X56.217 Y-7.866 E12.60907
G1 X56.408 Y-7.645 E12.62364
G1 X57.539 Y-6.254 E12.71308
G1 X57.738 Y-5.992 E12.7295
G1 X59.101 Y-4.059 E12.8475
G1 X59.289 Y-3.771 E12.86466
G1 X60.277 Y-2.132 E12.96014
G1 X60.418 Y-1.882 E12.97445
G1 X61.194 Y-.401 E13.05787
G1 X61.343 Y-0.088 E13.07517
G1 X62.427 Y2.403 E13.2107
G1 X62.598 Y2.857 E13.2349
G1 X63.588 Y5.956 E13.39721
G1 X63.702 Y6.379 E13.41907
G1 X64.206 Y8.655 E13.53537
G1 X64.285 Y9.115 E13.55865
G1 X64.693 Y12.48 E13.72776
G1 X64.725 Y12.879 E13.74773
G1 X64.787 Y14.544 E13.83086
G1 X64.788 Y14.869 E13.84707
G1 X64.715 Y17.269 E13.96686
G1 X64.692 Y17.614 E13.98411
G1 X64.5 Y19.483 E14.07785
G1 X64.441 Y19.884 E14.09807
G1 X63.845 Y23.036 E14.25811
G1 X63.743 Y23.469 E14.28031
G1 X63.093 Y25.733 E14.39782
G1 X62.945 Y26.167 E14.4207
G1 X61.72 Y29.277 E14.58746
G1 X61.556 Y29.647 E14.60765
G1 X60.778 Y31.219 E14.69516
G1 X60.624 Y31.506 E14.71141
G1 X59.449 Y33.523 E14.82786
G1 X59.268 Y33.809 E14.84475
G1 X58.236 Y35.324 E14.9362
G1 X58.068 Y35.556 E14.95049
G1 X56.966 Y36.983 E15.04044
G1 X56.755 Y37.237 E15.05692
G1 X55.219 Y38.966 E15.1723
G1 X54.99 Y39.207 E15.18889
G1 X53.703 Y40.468 E15.27878
G1 X53.495 Y40.66 E15.2929
G1 X52.172 Y41.811 E15.38039
G1 X51.915 Y42.02 E15.39692
G1 X49.976 Y43.485 E15.51816
G1 X49.589 Y43.749 E15.54153
G1 X46.736 Y45.496 E15.70843
G1 X46.384 Y45.691 E15.72851
G1 X44.834 Y46.47 E15.81506
G1 X44.539 Y46.606 E15.83126
G1 X42.405 Y47.503 E15.94675
G1 X41.982 Y47.658 E15.96923
G1 X38.804 Y48.655 E16.1354
G1 X38.432 Y48.755 E16.15462
G1 X36.991 Y49.083 E16.22835
G1 X36.618 Y49.153 E16.24728
G1 X33.413 Y49.62 E16.40887
G1 X32.967 Y49.664 E16.43123
G1 X30.592 Y49.786 E16.54987
G1 X30.256 Y49.791 E16.56664
G1 X28.443 Y49.757 E16.6571
G1 X28.154 Y49.743 E16.67154
G1 X26.376 Y49.602 E16.76052
G1 X26.051 Y49.565 E16.77684
G1 X23.716 Y49.219 E16.89461
G1 X23.416 Y49.165 E16.90981
G1 X18.185 Y48.046 E17.17669
G1 X12.834 Y47.161 E17.44728
G1 X7.506 Y46.588 E17.71463
G1 X2.116 Y46.315 E17.98388
G0 F3000 X2.134 Y45.915
G1 F1500 X-3.29 Y45.947 E18.25449
G1 X-8.668 Y46.284 E18.52333
G1 X-14.055 Y46.928 E18.794
G1 X-19.392 Y47.875 E19.06442
G1 X-21.096 Y48.261 E19.15159
G1 X-21.165 Y48.276 E19.15511
G1 X-23.836 Y48.836 E19.29127
G1 X-24.108 Y48.885 E19.30506
G1 X-25.979 Y49.156 E19.39938
G1 X-26.24 Y49.185 E19.41248
G1 X-27.983 Y49.332 E19.49974
G1 X-28.277 Y49.347 E19.51443
G1 X-30.597 Y49.387 E19.63019
G1 X-30.909 Y49.382 E19.64576
G1 X-32.734 Y49.284 E19.73694
G1 X-32.998 Y49.261 E19.75016
G1 X-34.78 Y49.057 E19.83965
G1 X-35.076 Y49.013 E19.85458
G1 X-37.392 Y48.587 E19.97206
G1 X-37.798 Y48.493 E19.99285
G1 X-40.963 Y47.594 E20.157
G1 X-41.316 Y47.477 E20.17556
G1 X-42.957 Y46.857 E20.26307
G1 X-43.231 Y46.743 E20.27788
G1 X-45.38 Y45.761 E20.39576
G1 X-45.661 Y45.62 E20.41144
G1 X-47.279 Y44.736 E20.50343
G1 X-47.51 Y44.601 E20.51677
G1 X-49.035 Y43.643 E20.60662
G1 X-49.281 Y43.476 E20.62146
G1 X-51.174 Y42.1 E20.73821
G1 X-51.418 Y41.909 E20.75367
G1 X-52.809 Y40.74 E20.84432
G1 X-53.006 Y40.564 E20.8575
G1 X-54.287 Y39.349 E20.94559
G1 X-54.497 Y39.137 E20.96047
G1 X-56.103 Y37.392 E21.07879
G1 X-56.307 Y37.152 E21.09451
G1 X-57.451 Y35.715 E21.18614
G1 X-57.608 Y35.507 E21.19914
G1 X-58.614 Y34.077 E21.28637
G1 X-58.776 Y33.829 E21.30115
G1 X-59.995 Y31.822 E21.4183
G1 X-60.151 Y31.543 E21.43425
G1 X-61.033 Y29.82 E21.53082
G1 X-61.168 Y29.53 E21.54678
G1 X-62.156 Y27.195 E21.67327
G1 X-62.306 Y26.785 E21.69505
G1 X-63.287 Y23.625 E21.86013
G1 X-63.403 Y23.164 E21.88384
G1 X-64.016 Y20.026 E22.04336
G1 X-64.076 Y19.619 E22.06388
G1 X-64.32 Y17.174 E22.18647
G1 X-64.34 Y16.856 E22.20237
G1 X-64.389 Y15.049 E22.29255
G1 X-64.389 Y14.796 E22.30517
G1 X-64.337 Y13.093 E22.39018
G1 X-64.318 Y12.795 E22.40507
G1 X-64.085 Y10.432 E22.52354
G1 X-64.024 Y10.018 E22.54441
G1 X-63.394 Y6.802 E22.70791
G1 X-63.274 Y6.332 E22.73211
G1 X-62.271 Y3.133 E22.89937
G1 X-62.129 Y2.743 E22.92008
G1 X-61.221 Y0.584 E23.03693
G1 X-61.089 Y0.3 E23.05255
G1 X-60.247 Y-1.36 E23.14541
G1 X-60.124 Y-1.587 E23.1583
G1 X-59.277 Y-3.039 E23.24216
G1 X-59.12 Y-3.287 E23.2568
G1 X-57.788 Y-5.256 E23.3754
G1 X-57.604 Y-5.509 E23.39101
G1 X-56.482 Y-6.937 E23.48162
G1 X-56.241 Y-7.219 E23.50012
G1 X-54.022 Y-9.6 E23.6625
G1 X-53.73 Y-9.885 E23.68286
G1 X-51.95 Y-11.471 E23.8018
G1 X-51.665 Y-11.705 E23.8202
G1 X-2.642 Y-48.505 E26.87839
G1 X-2.144 Y-48.828 E26.908
G1 X-1.608 Y-49.082 E26.93759
G1 X-1.043 Y-49.261 E26.96716
G1 X-.459 Y-49.362 E26.99673
G1 X0.134 Y-49.384 E27.02633
G1 X0.724 Y-49.326 E27.05591
G1 X1.301 Y-49.189 E27.0855
G1 X1.854 Y-48.976 E27.11506
G1 X2.374 Y-48.691 E27.14465
G1 X2.64 Y-48.506 E27.16081
G1 X51.17 Y-12.099 E30.18756
G1 X51.339 Y-11.966 E30.19829
G1 X52.557 Y-10.956 E30.27723
G1 X52.772 Y-10.766 E30.29154
G1 X54.471 Y-9.159 E30.40822
G1 X54.686 Y-8.941 E30.42349
G1 X55.923 Y-7.596 E30.51466
G1 X56.098 Y-7.393 E30.52803
G1 X57.229 Y-6.002 E30.61747
G1 X57.411 Y-5.762 E30.6325
G1 X58.774 Y-3.829 E30.7505
G1 X58.946 Y-3.565 E30.76622
G1 X59.934 Y-1.926 E30.8617
G1 X60.063 Y-1.696 E30.87486
G1 X60.839 Y-.215 E30.95827
G1 X60.977 Y0.071 E30.97411
G1 X62.061 Y2.562 E31.10965
G1 X62.217 Y2.979 E31.13186
G1 X63.207 Y6.078 E31.29417
G1 X63.312 Y6.466 E31.31422
G1 X63.816 Y8.742 E31.43052
G1 X63.888 Y9.163 E31.45183
G1 X64.296 Y12.528 E31.62094
G1 X64.325 Y12.894 E31.63926
G1 X64.387 Y14.559 E31.72238
G1 X64.388 Y14.857 E31.73725
G1 X64.315 Y17.257 E31.85704
G1 X64.294 Y17.573 E31.87284
G1 X64.102 Y19.442 E31.96658
G1 X64.048 Y19.809 E31.98508
G1 X63.452 Y22.961 E32.14512
G1 X63.358 Y23.358 E32.16548
G1 X62.708 Y25.622 E32.28299
G1 X62.573 Y26.021 E32.30401
G1 X61.348 Y29.131 E32.47077
G1 X61.197 Y29.47 E32.48928
G1 X60.419 Y31.042 E32.57679
G1 X60.278 Y31.305 E32.59168
G1 X59.103 Y33.322 E32.70814
G1 X58.937 Y33.584 E32.72361
G1 X57.905 Y35.099 E32.81506
G1 X57.751 Y35.311 E32.82814
G1 X56.649 Y36.738 E32.91809
G1 X56.456 Y36.971 E32.93318
G1 X54.92 Y38.7 E33.04857
G1 X54.71 Y38.921 E33.06377
G1 X53.423 Y40.182 E33.15367
G1 X53.232 Y40.359 E33.16666
G1 X51.909 Y41.51 E33.25415
G1 X51.673 Y41.701 E33.26929
G1 X49.734 Y43.166 E33.39054
G1 X49.38 Y43.407 E33.4119
G1 X46.527 Y45.154 E33.5788
G1 X46.205 Y45.333 E33.59718
G1 X44.655 Y46.112 E33.68373
G1 X44.384 Y46.237 E33.69862
G1 X42.25 Y47.134 E33.81411
G1 X41.862 Y47.276 E33.83472
G1 X38.684 Y48.273 E34.00089
G1 X38.344 Y48.365 E34.01847
G1 X36.903 Y48.693 E34.0922
G1 X36.56 Y48.757 E34.1096
G1 X33.355 Y49.224 E34.27119
G1 X32.947 Y49.264 E34.29164
G1 X30.572 Y49.386 E34.41029
G1 X30.263 Y49.391 E34.42571
G1 X28.45 Y49.357 E34.51617
G1 X28.185 Y49.344 E34.52941
G1 X26.407 Y49.203 E34.61839
G1 X26.11 Y49.169 E34.63331
G1 X23.775 Y48.823 E34.75107
G1 X23.5 Y48.774 E34.76501
G1 X18.252 Y47.651 E35.03276
G1 X12.907 Y46.767 E35.30305
G1 X7.514 Y46.187 E35.57366
G1 X2.134 Y45.915 E35.84241
G0 F3000 X2.134 Y45.515
G1 F1500 X-3.3 Y45.547 E36.11352
G1 X-8.706 Y45.885 E36.38375
G1 X-14.119 Y46.533 E36.65573
G1 X-19.468 Y47.482 E36.92676
G1 X-21.185 Y47.871 E37.0146
G1 X-21.247 Y47.885 E37.01777
G1 X-23.918 Y48.445 E37.15392
G1 X-24.166 Y48.489 E37.16649
G1 X-26.037 Y48.76 E37.2608
G1 X-26.274 Y48.787 E37.27271
G1 X-28.017 Y48.934 E37.35997
G1 X-28.284 Y48.947 E37.37331
G1 X-30.604 Y48.987 E37.48907
G1 X-30.887 Y48.982 E37.50319
G1 X-32.712 Y48.884 E37.59437
G1 X-32.953 Y48.864 E37.60644
G1 X-34.735 Y48.66 E37.69592
G1 X-35.004 Y48.62 E37.70949
G1 X-37.32 Y48.194 E37.82698
G1 X-37.689 Y48.108 E37.84588
G1 X-40.854 Y47.209 E38.01003
G1 X-41.175 Y47.103 E38.02689
G1 X-42.816 Y46.483 E38.11441
G1 X-43.064 Y46.379 E38.12783
G1 X-45.213 Y45.397 E38.2457
G1 X-45.469 Y45.269 E38.25998
G1 X-47.087 Y44.385 E38.35197
G1 X-47.297 Y44.262 E38.36411
G1 X-48.822 Y43.304 E38.45396
G1 X-49.046 Y43.153 E38.46744
G1 X-50.939 Y41.777 E38.58419
G1 X-51.16 Y41.603 E38.59823
G1 X-52.551 Y40.434 E38.68888
G1 X-52.731 Y40.274 E38.70089
G1 X-54.012 Y39.059 E38.78898
G1 X-54.202 Y38.866 E38.80249
G1 X-55.808 Y37.121 E38.9208
G1 X-55.994 Y36.903 E38.9351
G1 X-57.138 Y35.466 E39.02674
G1 X-57.281 Y35.277 E39.03856
G1 X-58.287 Y33.847 E39.12579
G1 X-58.434 Y33.621 E39.13924
G1 X-59.653 Y31.614 E39.25639
G1 X-59.795 Y31.361 E39.27087
G1 X-60.677 Y29.638 E39.36744
G1 X-60.8 Y29.374 E39.38197
G1 X-61.788 Y27.039 E39.50846
G1 X-61.924 Y26.666 E39.52827
G1 X-62.905 Y23.506 E39.69334
G1 X-63.011 Y23.087 E39.7149
G1 X-63.624 Y19.949 E39.87442
G1 X-63.678 Y19.579 E39.89307
G1 X-63.922 Y17.134 E40.01566
G1 X-63.941 Y16.845 E40.03011
G1 X-63.99 Y15.038 E40.1203
G1 X-63.989 Y14.808 E40.13177
G1 X-63.937 Y13.105 E40.21677
G1 X-63.92 Y12.834 E40.23032
G1 X-63.687 Y10.471 E40.34878
G1 X-63.631 Y10.095 E40.36775
G1 X-63.001 Y6.879 E40.53124
G1 X-62.893 Y6.451 E40.55327
G1 X-61.89 Y3.252 E40.72053
G1 X-61.76 Y2.898 E40.73934
G1 X-60.852 Y0.739 E40.85619
G1 X-60.732 Y0.481 E40.87039
G1 X-59.89 Y-1.179 E40.96325
G1 X-59.778 Y-1.385 E40.97495
G1 X-58.931 Y-2.837 E41.05881
G1 X-58.789 Y-3.063 E41.07213
G1 X-57.457 Y-5.032 E41.19073
G1 X-57.289 Y-5.262 E41.20494
G1 X-56.167 Y-6.69 E41.29554
G1 X-55.948 Y-6.946 E41.31235
G1 X-53.729 Y-9.327 E41.47473
G1 X-53.464 Y-9.586 E41.49321
G1 X-51.684 Y-11.172 E41.61216
G1 X-51.424 Y-11.385 E41.62892
G1 X-2.401 Y-48.185 E44.68711
G1 X-1.926 Y-48.492 E44.71533
G1 X-1.413 Y-48.728 E44.7435
G1 X-.871 Y-48.89 E44.77173
G1 X-.312 Y-48.974 E44.79993
G1 X0.253 Y-48.978 E44.82812
G1 X0.813 Y-48.902 E44.85631
G1 X1.357 Y-48.749 E44.8845
G1 X1.874 Y-48.52 E44.91271
G1 X2.4 Y-48.186 E44.9438
G1 X50.93 Y-11.779 E47.97055
G1 X51.083 Y-11.658 E47.98028
G1 X52.301 Y-10.648 E48.05922
G1 X52.497 Y-10.475 E48.07226
G1 X54.196 Y-8.868 E48.18894
G1 X54.391 Y-8.67 E48.2028
G1 X55.628 Y-7.325 E48.29397
G1 X55.788 Y-7.14 E48.30617
G1 X56.919 Y-5.749 E48.39561
G1 X57.084 Y-5.531 E48.40925
G1 X58.447 Y-3.598 E48.52725
G1 X58.604 Y-3.358 E48.54156
G1 X59.592 Y-1.719 E48.63704
G1 X59.709 Y-1.51 E48.64899
G1 X60.485 Y-0.029 E48.73241
G1 X60.61 Y0.231 E48.7468
G1 X61.694 Y2.722 E48.88233
G1 X61.836 Y3.101 E48.90252
G1 X62.826 Y6.2 E49.06483
G1 X62.921 Y6.552 E49.08302
G1 X63.425 Y8.828 E49.19932
G1 X63.491 Y9.212 E49.21876
G1 X63.899 Y12.577 E49.38787
G1 X63.925 Y12.909 E49.40448
G1 X63.987 Y14.574 E49.48761
G1 X63.988 Y14.845 E49.50113
G1 X63.915 Y17.245 E49.62092
G1 X63.896 Y17.532 E49.63527
G1 X63.704 Y19.401 E49.72901
G1 X63.655 Y19.735 E49.74585
G1 X63.059 Y22.887 E49.90589
G1 X62.974 Y23.248 E49.92439
G1 X62.324 Y25.512 E50.04191
G1 X62.201 Y25.874 E50.06098
G1 X60.976 Y28.984 E50.22774
G1 X60.839 Y29.292 E50.24456
G1 X60.061 Y30.864 E50.33207
G1 X59.932 Y31.103 E50.34562
G1 X58.757 Y33.12 E50.46207
G1 X58.607 Y33.359 E50.47615
G1 X57.575 Y34.874 E50.56761
G1 X57.435 Y35.067 E50.5795
G1 X56.333 Y36.494 E50.66945
G1 X56.157 Y36.706 E50.6832
G1 X54.621 Y38.435 E50.79858
G1 X54.43 Y38.635 E50.81238
G1 X53.143 Y39.896 E50.90227
G1 X52.969 Y40.057 E50.9141
G1 X51.646 Y41.208 E51.00159
G1 X51.432 Y41.381 E51.01531
G1 X49.493 Y42.846 E51.13656
G1 X49.171 Y43.066 E51.15601
G1 X46.318 Y44.813 E51.32292
G1 X46.025 Y44.976 E51.33964
G1 X44.475 Y45.755 E51.42619
G1 X44.229 Y45.868 E51.4397
G1 X42.095 Y46.765 E51.55519
G1 X41.742 Y46.895 E51.57395
G1 X38.564 Y47.892 E51.74012
G1 X38.255 Y47.975 E51.75609
G1 X36.814 Y48.303 E51.82982
G1 X36.503 Y48.361 E51.8456
G1 X33.298 Y48.828 E52.00719
G1 X32.926 Y48.865 E52.02584
G1 X30.551 Y48.987 E52.14448
G1 X30.271 Y48.991 E52.15845
G1 X28.458 Y48.957 E52.24892
G1 X28.217 Y48.945 E52.26096
G1 X26.439 Y48.804 E52.34994
G1 X26.169 Y48.774 E52.3635
G1 X23.834 Y48.428 E52.48126
G1 X23.583 Y48.382 E52.49399
G1 X18.334 Y47.259 E52.76179
G1 X12.961 Y46.37 E53.0335
G1 X7.56 Y45.789 E53.30451
G1 X2.134 Y45.515 E53.57556
G0 F3000 X2.152 Y45.115
G1 F1500 X-3.309 Y45.147 E53.84801
G1 X-8.742 Y45.487 E54.1196
G1 X-14.167 Y46.136 E54.39218
G1 X-19.56 Y47.093 E54.66544
G1 X-21.273 Y47.481 E54.75307
G1 X-21.329 Y47.493 E54.75593
G1 X-24 Y48.053 E54.89208
G1 X-24.223 Y48.093 E54.90338
G1 X-26.094 Y48.364 E54.9977
G1 X-26.307 Y48.388 E55.00839
G1 X-28.05 Y48.535 E55.09566
G1 X-28.291 Y48.547 E55.1077
G1 X-30.611 Y48.587 E55.22346
G1 X-30.866 Y48.583 E55.23619
G1 X-32.691 Y48.485 E55.32737
G1 X-32.907 Y48.467 E55.33818
G1 X-34.689 Y48.263 E55.42767
G1 X-34.931 Y48.227 E55.43987
G1 X-37.247 Y47.801 E55.55736
G1 X-37.58 Y47.723 E55.57442
G1 X-40.745 Y46.824 E55.73857
G1 X-41.033 Y46.729 E55.7537
G1 X-42.674 Y46.109 E55.84122
G1 X-42.898 Y46.015 E55.85334
G1 X-45.047 Y45.033 E55.97121
G1 X-45.277 Y44.918 E55.98404
G1 X-46.895 Y44.034 E56.07603
G1 X-47.084 Y43.923 E56.08696
G1 X-48.609 Y42.965 E56.17681
G1 X-48.811 Y42.829 E56.18896
G1 X-50.704 Y41.453 E56.30572
G1 X-50.903 Y41.297 E56.31833
G1 X-52.294 Y40.128 E56.40898
G1 X-52.455 Y39.984 E56.41976
G1 X-53.736 Y38.769 E56.50784
G1 X-53.908 Y38.595 E56.52005
G1 X-55.514 Y36.85 E56.63837
G1 X-55.681 Y36.654 E56.65121
G1 X-56.825 Y35.217 E56.74285
G1 X-56.953 Y35.046 E56.75351
G1 X-57.959 Y33.616 E56.84073
G1 X-58.092 Y33.414 E56.8528
G1 X-59.311 Y31.407 E56.96995
G1 X-59.439 Y31.178 E56.98304
